packages/core/src/svgs/tokens/branded/SUDO.svg

<svg width="24" height="24" viewBox="0 0 24 24" fill="none" xmlns="http://www.w3.org/2000/svg">
<path d="M3.96668 5.61108H2L4.38333 11.9499L2 18.3889H3.96668L6.32778 11.9499L3.96668 5.61108ZM20.0334 5.61108H22L19.6166 11.9499L22 18.3889H20.0334L17.6666 11.9499L20.0334 5.61108ZM15.7611 10.6111H14.0667C14.0667 10.0555 13.2444 9.49997 12.1611 9.49997C11.0778 9.49997 10.0778 9.73327 10.0778 10.9611C10.0778 12.1833 11.2278 11.9832 13.6889 12.5444C15.6555 12.9944 15.8889 14.35 15.8889 15.1721C15.8889 16.3388 15.3945 17.8333 12.1611 17.8333C8.72778 17.8333 8.03334 15.8777 8.11666 15.0555H9.97218C9.97218 16.0388 10.9889 16.7222 12.1611 16.7222C13.3278 16.7222 14.2833 16.1667 14.2833 15.1667C14.2833 14.1722 13.4833 13.9388 10.8277 13.5111C8.70556 13.1722 8.34445 11.6667 8.42778 10.9611C8.34445 10.1 8.95 8.38887 12.0333 8.38887C15.1167 8.38887 15.8055 9.83334 15.7611 10.6111Z" fill="#B9B9FF"/>
</svg>

<svg xmlns="http://www.w3.org/2000/svg" width="24" height="24" fill="none" viewBox="0 0 24 24">
    <path fill="#B9B9FF" d="M3.967 5.611H2l2.383 6.339L2 18.389h1.967l2.36-6.44zm16.066 0H22l-2.383 6.339L22 18.389h-1.967l-2.366-6.44zm-4.272 5h-1.694c0-.556-.823-1.111-1.906-1.111s-2.083.233-2.083 1.461c0 1.222 1.15 1.022 3.61 1.583 1.967.45 2.2 1.806 2.2 2.628 0 1.167-.493 2.661-3.727 2.661-3.433 0-4.128-1.955-4.044-2.777h1.855c0 .983 1.017 1.666 2.19 1.666 1.166 0 2.121-.555 2.121-1.555 0-.995-.8-1.228-3.455-1.656-2.122-.339-2.484-1.844-2.4-2.55-.084-.861.522-2.572 3.605-2.572s3.773 1.444 3.728 2.222"/>
</svg>
